_icons/SVG/024-arbok-shiny.svg

<svg xmlns="http://www.w3.org/2000/svg" width="32" height="32"><path fill="#F0C877" d="M31.362 30.299l-1.316-3.51a5.36 5.36 0 00-3.968-3.374l-.003-.001a5.354 5.354 0 00-3.874.7l-.674.418a1 1 0 01-1.527-.85v-1.204c0-1.848.878-3.56 2.311-4.726C24.562 15.92 26 14.129 26 11c0-5.523-4.477-9.999-10-9.999-.376 0-.756.02-1.141.062-4.47.495-8.148 4.061-8.761 8.517-.512 3.721 1.026 6.113 3.646 8.216A6.001 6.001 0 0112 22.474v2.329c0 2.183.719 3.916 2 5.196a6.81 6.81 0 002 1.378 6.795 6.795 0 002.828.623h1.343a6.825 6.825 0 004.828-2l1.367-1.367a1 1 0 011.332-.074l2.883 2.306c.397.318.96-.09.781-.566z"/><path fill="#F7D684" d="M26.269 25.731c-2.885 0-3.923 2.923-6.956 3.038-3.032.116-3.313-2.577-3.313-2.577V1.001c-.376 0-.756.02-1.141.062-4.47.495-8.148 4.061-8.761 8.517-.512 3.721 1.026 6.113 3.646 8.216A6.001 6.001 0 0112 22.474v2.329c0 2.183.719 3.916 2 5.196a6.81 6.81 0 002 1.378 6.795 6.795 0 002.828.623h1.343a6.825 6.825 0 004.828-2l1.367-1.367a1 1 0 011.332-.074l2.883 2.306a.49.49 0 00.606.015h.001c0-.001-2.15-5.149-4.919-5.149z"/><path fill="#E8BA67" d="M20 23.682v-1.204c0-.161.015-.32.028-.478h-8.055c.013.158.027.315.027.474v2.329c0 2.183.719 3.916 2 5.196.169.169.362.305.547.453l5.927-5.927a.98.98 0 01-.474-.843z"/><path fill="#F0C877" d="M16 26.192V22h-4.027c.013.158.027.315.027.474v2.329c0 2.183.719 3.916 2 5.196.169.169.362.305.547.453l2.421-2.421c-.853-.761-.968-1.839-.968-1.839z"/><path fill="#E2B060" d="M21.527 24.532a.987.987 0 01-1.053-.006l-5.927 5.927a6.94 6.94 0 001.453.925 6.81 6.81 0 002.828.622h1.343a6.83 6.83 0 004.319-1.54l-2.963-5.928z"/><path fill="#E8BA67" d="M22.859 27.198c-1.003.748-2.023 1.514-3.546 1.572-1.113.042-1.852-.294-2.346-.736l-2.421 2.421a6.94 6.94 0 001.453.925c.882.4 1.843.62 2.829.62h1.343a6.83 6.83 0 004.319-1.54l-1.631-3.262z"/><path fill="#DAA355" d="M26.079 23.416l-.003-.001a5.354 5.354 0 00-3.874.7l-.674.418 2.964 5.928a6.7 6.7 0 00.51-.46l1.367-1.367a.995.995 0 011.033-.233l.976-3.904a5.356 5.356 0 00-2.299-1.081z"/><path fill="#E2B060" d="M26.269 25.731c-1.436 0-2.415.725-3.41 1.467l1.631 3.262A6.7 6.7 0 0025 30l1.367-1.367A.995.995 0 0127.4 28.4l.518-2.073c-.513-.36-1.066-.596-1.649-.596z"/><path fill="#D4994F" d="M30.046 26.79a5.355 5.355 0 00-1.67-2.294L27.4 28.4a.993.993 0 01.299.159l2.883 2.306c.397.317.959-.09.781-.566l-1.317-3.509z"/><path fill="#DAA355" d="M27.918 26.327L27.4 28.4a.993.993 0 01.299.159l2.883 2.306a.49.49 0 00.606.015h.001c-.001-.001-1.344-3.202-3.271-4.553z"/><path fill="#5B689D" d="M18.732 10.732a2.501 2.501 0 003.536 3.536c.723-.723 1.325-3.264 1.589-4.534a.5.5 0 00-.591-.591c-1.27.264-3.811.866-4.534 1.589z"/><path fill="#FAE09F" d="M20.5 14c.4 0 .777-.156 1.06-.439.309-.309.721-1.522 1.058-2.874a.25.25 0 00-.304-.304c-1.353.337-2.565.748-2.874 1.057-.284.283-.44.66-.44 1.06s.156.777.439 1.06c.284.284.661.44 1.061.44z"/><path fill="#6673AA" d="M13.268 10.732a2.501 2.501 0 01-3.536 3.536c-.723-.723-1.325-3.264-1.589-4.534a.5.5 0 01.591-.591c1.27.264 3.811.866 4.534 1.589z"/><path fill="#FDEBBB" d="M11.5 14c-.4 0-.777-.156-1.06-.439-.309-.309-.721-1.522-1.058-2.874a.25.25 0 01.304-.304c1.353.337 2.565.748 2.874 1.057.284.283.44.66.44 1.06s-.156.777-.439 1.06c-.284.284-.661.44-1.061.44z"/><path fill="#373F3F" d="M16 7l-1 2.5c-.576-.325-1.299-.474-1.972-.534-.283-.025-.387.367-.125.478 1.307.552 2.234 1.483 2.716 2.057.1.119.24.178.381.178V7z"/><path fill="#2B3332" d="M16.381 11.5c.482-.573 1.409-1.505 2.716-2.057.262-.111.158-.503-.125-.478-.673.061-1.396.21-1.972.535L16 7v4.678a.494.494 0 00.381-.178z"/><path fill="#373F3F" d="M16 15.138a.495.495 0 00-.28.087c-.29.2-.828.502-1.72.775-.923.282-1.847.217-2.42.125a.249.249 0 00-.241.394c.478.642 1.449 1.652 2.833 1.652.905 0 1.384.429 1.622.767a.25.25 0 00.207.109v-3.909z"/><path fill="#2B3332" d="M16.207 18.939c.237-.339.717-.767 1.622-.767 1.384 0 2.355-1.01 2.833-1.652a.249.249 0 00-.241-.394c-.574.091-1.498.156-2.421-.126-.892-.273-1.43-.574-1.72-.775a.495.495 0 00-.28-.087v3.91a.25.25 0 00.207-.109z"/><path fill="#FDEBBB" d="M16 0c-2.761 0-5 2.149-5 4.8S13.239 8 16 8V0z"/><path fill="#FAE09F" d="M21 4.8C21 2.149 18.761 0 16 0v8c2.761 0 5-.549 5-3.2zm-9.543 1.71C12.247 7.702 13.982 8 16 8V7c-1.644 0-2-1-4.543-.49z"/><path fill="#FFF" d="M14.43 5a.25.25 0 00.178-.426C14.173 4.13 13.473 3.5 13 3.5c-.43-.026-.406 1.5 0 1.5h1.43z"/><path fill="#373F3F" d="M14.491 4.46a5.673 5.673 0 00-.842-.704c-.092.159-.149.38-.149.626 0 .241.055.459.144.618h.712c.079-.141.124-.332.135-.54z"/><path fill="#F7F7F7" d="M17.57 5a.25.25 0 01-.178-.426C17.827 4.13 18.527 3.5 19 3.5c.43-.026.406 1.5 0 1.5h-1.43z"/><path fill="#2B3332" d="M17.509 4.46c.245-.242.545-.511.842-.704.092.16.149.381.149.627 0 .241-.055.459-.144.618h-.712a1.275 1.275 0 01-.135-.541z"/><path fill="#F7D684" d="M20.543 6.51C19.753 7.702 18.018 8 16 8V7c1.644 0 2-1 4.543-.49z"/></svg>

<?xml version="1.0" encoding="utf-8"?>
<!-- Generator: Adobe Illustrator 23.0.6, SVG Export Plug-In . SVG Version: 6.00 Build 0)  -->
<svg version="1.1" xmlns="http://www.w3.org/2000/svg" xmlns:xlink="http://www.w3.org/1999/xlink" x="0px" y="0px" width="32px"
	 height="32px" viewBox="0 0 32 32" enable-background="new 0 0 32 32" xml:space="preserve">
<g id="icons">
	<g>
		<g>
			<path fill="#F0C877" d="M31.362,30.299l-1.316-3.51c-0.651-1.735-2.151-3.011-3.968-3.374l-0.003-0.001
				c-1.333-0.267-2.718-0.017-3.874,0.7l-0.674,0.418C20.861,24.945,20,24.466,20,23.682v-1.204c0-1.848,0.878-3.56,2.311-4.726
				C24.562,15.92,26,14.129,26,11c0-5.523-4.477-9.999-10-9.999c-0.376,0-0.756,0.02-1.141,0.062
				C10.389,1.558,6.711,5.124,6.098,9.58c-0.512,3.721,1.026,6.113,3.646,8.216C11.165,18.937,12,20.652,12,22.474
				c0,1.229,0,2.329,0,2.329c0,2.183,0.719,3.916,2,5.196c0.583,0.583,1.264,1.043,2,1.378C16.881,31.78,17.842,32,18.828,32h1.343
				c1.811,0,3.548-0.719,4.828-2l1.367-1.367c0.36-0.36,0.934-0.392,1.332-0.074l2.883,2.306
				C30.978,31.183,31.541,30.775,31.362,30.299z"/>
			<path fill="#F7D684" d="M26.269,25.731c-2.885,0-3.923,2.923-6.956,3.038C16.281,28.885,16,26.192,16,26.192V1.001
				c-0.376,0-0.756,0.02-1.141,0.062C10.389,1.558,6.711,5.124,6.098,9.58c-0.512,3.721,1.026,6.113,3.646,8.216
				C11.165,18.937,12,20.652,12,22.474c0,1.229,0,2.329,0,2.329c0,2.183,0.719,3.916,2,5.196c0.583,0.583,1.264,1.043,2,1.378
				C16.881,31.78,17.842,32,18.828,32h1.343c1.811,0,3.548-0.719,4.828-2l1.367-1.367c0.36-0.36,0.934-0.392,1.332-0.074
				l2.883,2.306c0.198,0.159,0.438,0.136,0.606,0.015l0.001,0C31.188,30.879,29.038,25.731,26.269,25.731z"/>
			<path fill="#E8BA67" d="M20,23.682v-1.204c0-0.161,0.015-0.32,0.028-0.478h-8.055C11.986,22.158,12,22.315,12,22.474
				c0,1.229,0,2.329,0,2.329c0,2.183,0.719,3.916,2,5.196c0.169,0.169,0.362,0.305,0.547,0.453l5.927-5.927
				C20.198,24.355,20,24.055,20,23.682z"/>
			<path fill="#F0C877" d="M16,26.192V22h-4.027C11.986,22.158,12,22.315,12,22.474c0,1.229,0,2.329,0,2.329
				c0,2.183,0.719,3.916,2,5.196c0.169,0.169,0.362,0.305,0.547,0.453l2.421-2.421C16.115,27.27,16,26.192,16,26.192z"/>
			<path fill="#E2B060" d="M21.527,24.532c-0.349,0.216-0.749,0.183-1.053-0.006h0l-5.927,5.927
				c0.452,0.363,0.931,0.687,1.453,0.925C16.881,31.78,17.842,32,18.828,32h1.343c1.581,0,3.105-0.549,4.319-1.54L21.527,24.532z"/>
			<path fill="#E8BA67" d="M22.859,27.198c-1.003,0.748-2.023,1.514-3.546,1.572c-1.113,0.042-1.852-0.294-2.346-0.736l-2.421,2.421
				c0.452,0.363,0.931,0.687,1.453,0.925C16.881,31.78,17.842,32,18.828,32h1.343c1.581,0,3.105-0.549,4.319-1.54L22.859,27.198z"/>
			<path fill="#DAA355" d="M26.079,23.416l-0.003-0.001c-1.333-0.267-2.718-0.017-3.874,0.7l-0.674,0.418l2.964,5.928
				c0.177-0.144,0.347-0.297,0.51-0.46l1.367-1.367c0.278-0.278,0.68-0.355,1.033-0.233l0.976-3.904
				C27.716,23.967,26.935,23.587,26.079,23.416z"/>
			<path fill="#E2B060" d="M26.269,25.731c-1.436,0-2.415,0.725-3.41,1.467l1.631,3.262c0.177-0.144,0.347-0.297,0.51-0.46
				l1.367-1.367c0.278-0.278,0.68-0.355,1.033-0.233l0.518-2.073C27.405,25.967,26.852,25.731,26.269,25.731z"/>
			<path fill="#D4994F" d="M30.046,26.79c-0.344-0.917-0.93-1.7-1.67-2.294L27.4,28.4c0.105,0.036,0.207,0.086,0.299,0.159
				l2.883,2.306c0.397,0.317,0.959-0.09,0.781-0.566L30.046,26.79z"/>
			<path fill="#DAA355" d="M27.918,26.327L27.4,28.4c0.105,0.036,0.207,0.086,0.299,0.159l2.883,2.306
				c0.198,0.159,0.438,0.136,0.606,0.015l0.001,0C31.188,30.879,29.845,27.678,27.918,26.327z"/>
		</g>
		<path fill="#5B689D" d="M18.732,10.732c-0.976,0.976-0.976,2.559,0,3.536s2.559,0.976,3.536,0
			c0.723-0.723,1.325-3.264,1.589-4.534c0.073-0.353-0.238-0.664-0.591-0.591C21.996,9.407,19.455,10.009,18.732,10.732z"/>
		<path fill="#FAE09F" d="M20.5,14c0.4,0,0.777-0.156,1.06-0.439c0.309-0.309,0.721-1.522,1.058-2.874
			c0.046-0.184-0.121-0.35-0.304-0.304c-1.353,0.337-2.565,0.748-2.874,1.057C19.156,11.723,19,12.1,19,12.5s0.156,0.777,0.439,1.06
			C19.723,13.844,20.1,14,20.5,14z"/>
		<path fill="#6673AA" d="M13.268,10.732c0.976,0.976,0.976,2.559,0,3.536s-2.559,0.976-3.536,0
			c-0.723-0.723-1.325-3.264-1.589-4.534C8.07,9.381,8.381,9.07,8.734,9.143C10.004,9.407,12.545,10.009,13.268,10.732z"/>
		<path fill="#FDEBBB" d="M11.5,14c-0.4,0-0.777-0.156-1.06-0.439c-0.309-0.309-0.721-1.522-1.058-2.874
			c-0.046-0.184,0.121-0.35,0.304-0.304c1.353,0.337,2.565,0.748,2.874,1.057C12.844,11.723,13,12.1,13,12.5
			s-0.156,0.777-0.439,1.06C12.277,13.844,11.9,14,11.5,14z"/>
		<path fill="#373F3F" d="M16,7l-1,2.5c-0.576-0.325-1.299-0.474-1.972-0.534c-0.283-0.025-0.387,0.367-0.125,0.478
			c1.307,0.552,2.234,1.483,2.716,2.057c0.1,0.119,0.24,0.178,0.381,0.178V7z"/>
		<path fill="#2B3332" d="M16.381,11.5c0.482-0.573,1.409-1.505,2.716-2.057c0.262-0.111,0.158-0.503-0.125-0.478
			C18.299,9.026,17.576,9.175,17,9.5L16,7v4.678C16.141,11.678,16.281,11.619,16.381,11.5z"/>
		<path fill="#373F3F" d="M16,15.138c-0.098,0-0.195,0.029-0.28,0.087c-0.29,0.2-0.828,0.502-1.72,0.775
			c-0.923,0.282-1.847,0.217-2.42,0.125c-0.222-0.035-0.375,0.214-0.241,0.394c0.478,0.642,1.449,1.652,2.833,1.652
			c0.905,0,1.384,0.429,1.622,0.767c0.051,0.073,0.129,0.109,0.207,0.109V15.138z"/>
		<path fill="#2B3332" d="M16.207,18.939c0.237-0.339,0.717-0.767,1.622-0.767c1.384,0,2.355-1.01,2.833-1.652
			c0.134-0.18-0.02-0.43-0.241-0.394C19.847,16.217,18.923,16.282,18,16c-0.892-0.273-1.43-0.574-1.72-0.775
			c-0.085-0.058-0.182-0.087-0.28-0.087v3.91C16.078,19.048,16.156,19.012,16.207,18.939z"/>
		<path fill="#FDEBBB" d="M16,0c-2.761,0-5,2.149-5,4.8S13.239,8,16,8V0z"/>
		<path fill="#FAE09F" d="M21,4.8C21,2.149,18.761,0,16,0v8C18.761,8,21,7.451,21,4.8z"/>
		<path fill="#FAE09F" d="M11.457,6.51C12.247,7.702,13.982,8,16,8V7C14.356,7,14,6,11.457,6.51z"/>
		<g>
			<path fill="#FFFFFF" d="M14.43,5c0.222,0,0.333-0.267,0.178-0.426C14.173,4.13,13.473,3.5,13,3.5C12.57,3.474,12.594,5,13,5
				H14.43z"/>
			<path fill="#373F3F" d="M14.491,4.46c-0.245-0.242-0.545-0.511-0.842-0.704C13.557,3.915,13.5,4.136,13.5,4.382
				c0,0.241,0.055,0.459,0.144,0.618c0.235,0,0.484,0,0.712,0C14.435,4.859,14.48,4.668,14.491,4.46z"/>
		</g>
		<g>
			<path fill="#F7F7F7" d="M17.57,5c-0.222,0-0.333-0.267-0.178-0.426C17.827,4.13,18.527,3.5,19,3.5C19.43,3.474,19.406,5,19,5
				H17.57z"/>
			<path fill="#2B3332" d="M17.509,4.46c0.245-0.242,0.545-0.511,0.842-0.704c0.092,0.16,0.149,0.381,0.149,0.627
				c0,0.241-0.055,0.459-0.144,0.618h-0.712C17.565,4.859,17.52,4.668,17.509,4.46z"/>
		</g>
		<path fill="#F7D684" d="M20.543,6.51C19.753,7.702,18.018,8,16,8V7C17.644,7,18,6,20.543,6.51z"/>
	</g>
</g>
<g id="labels">
</g>
</svg>
